X:1
T:A Song of Battle
T:Charles Villiers Stanford (1852-1924) Opus 113, No. 5
T:Psalm 124
T:A Song of Battle
T:Copyright © 2013 by the Choral Public Domain Library (http://www.cpdl.org) Typeset by Rufus Brodersen. Edition may be freely distributed, performed, or recorded.
T:Copyright © 2013 by the Choral Public Domain Library (http://www.cpdl.org) Typeset by Rufus Brodersen. Edition may be freely distributed, performed, or recorded.
T:Copyright © 2013 by the Choral Public Domain Library (http://www.cpdl.org) Typeset by Rufus Brodersen. Edition may be freely distributed, performed, or recorded.
T:Copyright © 2013 by the Choral Public Domain Library (http://www.cpdl.org) Typeset by Rufus Brodersen. Edition may be freely distributed, performed, or recorded.
T:Copyright © 2013 by the Choral Public Domain Library (http://www.cpdl.org) Typeset by Rufus Brodersen. Edition may be freely distributed, performed, or recorded.
T:Copyright © 2013 by the Choral Public Domain Library (http://www.cpdl.org) Typeset by Rufus Brodersen. Edition may be freely distributed, performed, or recorded.
T:Copyright © 2013 by the Choral Public Domain Library (http://www.cpdl.org) Typeset by Rufus Brodersen. Edition may be freely distributed, performed, or recorded.
T:Copyright © 2013 by the Choral Public Domain Library (http://www.cpdl.org) Typeset by Rufus Brodersen. Edition may be freely distributed, performed, or recorded.
T:Copyright © 2013 by the Choral Public Domain Library (http://www.cpdl.org) Typeset by Rufus Brodersen. Edition may be freely distributed, performed, or recorded.
C:Charles Villiers Stanford (1852-1924)
C:Opus 113, No. 5
Z:Psalm 124
Z:Copyright © 2013 by the Choral Public Domain Library (http://www.cpdl.org)
Z:Typeset by Rufus Brodersen. Edition may be freely distributed, performed, or recorded.
%%score 1 { ( 2 4 ) | ( 3 5 ) } 6
L:1/8
Q:1/4=120
M:3/4
K:Bb
V:1 treble nm="Voice" snm="Voice"
V:2 treble nm="Organ" snm="Org."
V:4 treble 
V:3 bass 
V:5 bass 
V:6 bass nm="Pedals" snm="Ped."
V:1
"^Note:This is the fifth of six Bible Songs byCharles Villiers Stanford, opus 113,for solo voice or Unison voices.All of the Bible Songs are intended to befollowed by a short four-part Anthem.In this case it would bePraise to the Lord, the almighty.""^Allegro con fuoco." z2 | %1
w: |
 z6 | %2
w: |
"^Psalm 1241 If the Lord himself had not been on our side, now may Israel say:if the Lord himself had not been on our side, when men rose up against us;2 Then they had swallowed us up alive: when their wrath was kindled against us.3 Then the waters had overwhelmed us:the stream had gone over our soul.4 Then the proud waters : had gone even over our soul.5 Blessed be the Lord: who hath not given us as a prey unto their teeth.6 Our soul is escaped even as a bird from the snare of the fowlers:the snare is broken, and we are delivered.7 Our help is in the Name of the Lord: who hath made heaven and earth." z6 | %3
w: |
 z6 | z6 | z6 | z6 | z6 | z2 z2!f! D>D | G4 ^F2 | G3 G A2 | B3 G A2 | B4 z2 | (d3 c) B2 | %14
w: |||||If the|Lord him-|self had not|been on our|side,|now _ may|
 (dc B2) A2 | G6- | G2 z2 D>D | G4 ^F2 | G3 G A2 | B3 G A2 | B4 c2 | d4 B2 | (e3 d) (cB) | %23
w: Is- * * rael|say:|_ If the|Lord him-|self had not|been on our|side, when|men rose|up _ a- *|
 c2 F2 z2 |!mf! F2 F2 F2 |!<(! _G3 _A B2 | c4 z!<)!!f! _A | _d6- | d2 c2 B2 | _d4 E2 | B3 _A _G2 | %31
w: gainst us;|Then they had|swal- lowed us|up a-|live,|_ when their|wrath was|kind- led a-|
 F2 _A2 z2 | z2!mf! F2 _G2 |!<(! _A3 B _c2!<)! | _d4 z!f! B | e6- | e2 _d2 _c2 | e4 E2 | %38
w: gainst us.|They had|swal- lowed us|up a-|live,|_ when their|wrath was|
 _c3 B _A2 | G2 B2 z2 | z6 | z6 | z2 z2!mf! DD | G3 G ^F2 | G4 A2 | (B3 c B)A | B4 z c | d6- | %48
w: kind- led a-|gainst us.|||Then the|wa- ters had|o- ver-|whel- * * med|us, The|stream|
 d6- | d2 c2 B2 | _A3 G F2 | E4 z2 | z6 |!f! c3 c d2 | e6- | e6- | e2 _d2 c2 | c6- | %58
w: _|* had gone|o- ver our|soul:||Then the proud|wa-||* ters had|gone|
!>(! c2 B2!>)! _A2 |"^poco slentando" _A6- | A2 G2 ^F2 | G4 z2 | _A2 G2 ^F2 | G4"^a tempo" z2 | %64
w: _ e- ven|o-|* ver our|soul,|o- ver our|soul.|
 z6 | z6 | z6 |!f! d3 B cd | F4 z2 | F2 G2 A2 | BB c2 Bc | d6 ||[K:G] B3 c A2 | G4!mf! D2 | G4 FG | %75
w: |||Bles- sed be the|Lord,|who hath not|giv- en us as a|prey|un- to their|teeth. Our|soul is es-|
 A4 D2 | B3 B AB | c6- | c2 B2 A2 | c2 E2 =F2 | G6 | E2 z2 E2 |"^cresc." A4 ^GA | B4 E2 | c3 c Bc | %85
w: ca- ped|e- ven as a|bird|_ from the|snare of the|fowl-|ers; Our|soul is es-|ca- ped|e- ven as a|
 d6- | d2 c2 B2 | d2 =F2 G2 | A6 | =F2 z2 z!f! F | _B4- BB | c2 _B2 z B | _d4- dd | _e2 _d2 z2 | %94
w: bird|_ from the|snare of the|fowl-|ers; the|snare _ is|bro- ken, the|snare _ is|bro- ken,|
 z6 | z2 z2 D2 | d6- | d2 B2 G2 | A4- AG | G2 z2 z2 | z6 | z6 | z2 z2 G2 | c6- | c4 c2- | %105
w: |and|we|_ are de-|li- * ver-|ed.|||Our|help|_ is|
 c2 B2 A2 | d2 A3 B | G4 z2 | z6 | z6 | z6 | z2 z2 =F2 |"^rall." _B6 |!<(! (_B6!<)! | _e4) z d | %115
w: _ in the|name of the|Lord,||||Who|made|heav'n|_ and|
 d6- | d4 z2 | z6 | z6 | z6 | z6 | z6 |] %122
w: earth.|_||||||
V:2
!f!"^Allegro con fuoco." D2 | [B,DG]2 z2 [A,E^F]2 | [B,DG]2 z2 [C^FA]2 | [DGB]2 z2 [CEA]2 | %4
 [DGB]2 z2 [EAc]2 | [Bd]3 [Ac] [GB]2 | [Bd]c B2 [CFA]2 | [EG]6- | [EG]4!mf! [D^F]2 | %9
 [DG]2 z2 [E^F]2 | [DG]2 z2 [^FA]2 | [GB]2 z2 [EA]2 | [GB]2 z2 [B-c]2 | [Bd]3 [Ac] [GB]2 | %14
 [Bd]c [GB]2 [FA]2 | [EG]6- | [EG]4 [D^F]2 | [DG]2 z2 [E^F]2 | [DG]2 z2 [_GA]2 | [FB]2 z2 [_GA]2 | %20
 [FB]2 z2 [Ac]2 | d4 G2 | [Gc]4 [GBe]2 | [FAc]2 z2 z2 |!mf! (F2 E2 D2) |!<(! (_G2 F2 E2)!<)! | %26
 ([_GB]2 [F_A]2 [EG]2) | F6- |!>(! F2 (E2 =E2!>)! | F2 _G2 =G2) | ([_D_AB]4 [E_Gc]2) | %31
 [F_A_d]2 [Fd]2 [Ae]2 | [_df]2 z2 z2 | _A2 _G2!<(! _F2- | (B2 _A2!<)! _G2) | (_c4 B2 | %36
 _A2 B2 _c2) |!>(! (_G2 [F_A]2 [G=A]2!>)! | [_A_c]3 [=GB] [FA]2) | [EG]2 z2!f! G2- | %40
 [GB^cg]2 z2 G2- | [GBdg]3 [Bd] [GB]2 | [Bd][Ac] [GB]2 [DA]2 |!mf! B,DGDEC | B,DGC^FE | DGBGEG | %46
 DGBEAF | (dF^cG=c^F | =BG_BDAC | GB,C^FGD | =FD"^più"!f! _A,) z G2 | c4 =B2 | c4 d2 |!<(! e4 d2 | %54
 e4 f2!<)! | g6 | (e2 _d2 c2 | c2 =B2 _B2 | _A2 G3 F) | (_DFECFD |"^colla parte" EC=DB,CA, | %61
 B,G,B,E) (_A2- | A2 G2 ^F2 | [B,DG]2) z2!f! [A,E^F]2 | [B,DG]2 z2 [CGA]2 | [DGB]2 z2 cA | %66
 [DGB]2 z2 [EBc]2 | [DBd]4 [DGB]2 | [DBd]4 cB | [df]2 [_d=e]2 [c_e]2 | =d2 c2 B2 | %71
 [CDA]2 [B,DG]2 [CGc]2 ||[K:G] B3 c [CDA]2 |!mf! B,DGDCB, | ^CEGECA, | DA,DFAD | ^GDB,DFG | %77
 AECEAc | A=FCFAc | GCcC=FC | GCEA,DB, | CEGECG, | B,D"^cresc."A=FDB, | DB,DEBE | AECE^GA | %85
 cADAcd | B=FDFBd | ADdDGD | ADGB,E^C | z2 [=FAd]2 [FA]2 | z2 [=F_Ad]2 [FA_B]2 | %91
 z2 [G_B_e]2 [GB]2 | z2 [_B_d=f]2 [=FBd]2 | z2 [_B_dg]2 [GBd]2 | z2!f! [_B^cg_b]4 | [=Bdg=b]6 | %96
 [FAdf]6 | [Gdg]4 [^CGB]2 | [=CD]6 | [B,DG]4 [A,DF]2 | [B,DEG]4 [CDFA]2 | B3 cBA | B4 B2 | %103
 [EGce]6 | [=F_Ac=f]6 | [_EGc_e]6 | [DAcd]6 | [DGB]4 [CGA]2 | [DGB]4 [EGc]2 | d3 ed^c | %110
 [Gd]4 [Gce]2 | [=Fc=f]6 |"^rall." [=F_Bd=f]6 | [G_B_eg]6 | [A_e^fa]6 | %115
"^a tempo"!ff! [Bdgb]2 [Bdg]2 [A_efa]2 | [GBdg]2 [GBd]2 [GAc]2 | [GBdg]2 [GBd]2 [Fc_e]2 | %118
 [GBd]2 [DGB]2 [CFA]2 | [DGB]2 z2 z2 | D6 | !fermata![GBdg]6 |] %122
V:3
 D,2 | [B,,D,G,]2 z2 [A,,E,^F,]2 | [B,,D,G,]2 z2 [C,^F,A,]2 | [D,G,B,]2 z2 [C,E,A,]2 | %4
 [D,G,B,]2 z2 [E,A,C]2 | B,3 [A,C] [G,B,]2 | [B,D]C B,2 A,2 | B,6- | B,4 A,2 | B,2 z2 A,2 | %10
 B,2 z2 C2 | D2 z2 C2 | D2 z2 E2 | D4 E2 | F2 E2 C2 | B,6- | B,4 A,2 | B,2 z2 A,2 | B,2 z2 C2 | %19
 D2 z2 C2 | D2 z2 E2 | D2 C2 B,2 | ED C2 [G,B,E]2 | [F,A,C]2 z2 z2 | F,6 | _G,6- | %26
 [G,B,]2 [F,_A,]2 [E,_G,]2 | F,6- | F,2 E,2 =E,2 | F,2 _G,2 =G,2 | [_D,_A,B,]4 [E,_G,C]2 | %31
 [F,_A,_D]2 [F,D]2 [A,E]2 | [_DF]2 z2 z2 | _A,6 | _D2 _C2 B,2 | _C4 B,2 | _A,2 B,2 _C2 | %37
 _G,2 [F,_A,]2 [G,=A,]2 | [_A,_C]3 [=G,B,] [F,A,]2 | [E,G,]2 z2 G,2- | [G,B,^C]2 z2 G,2- | %41
 [G,B,D]3 [B,D] [G,B,]2 | [B,D][A,C] [G,B,]2 [D,A,]2 | G,D,B,,D,C,E, | G,D,C,G,E,^F, | %45
 B,G,D,G,CG, | B,G,E,B,CE | D2- [D,D]4- | [D,-D]2 D,4- | D,6 | F,3 [E,G,] [D,F,]2 | E,G,E,C,_A,F, | %52
 E,G,E,C,=B,,_A, | G,E,C,E,F,_A, | G,E,C,E,C_A, | B,E,B,EB,E, | _A,CG,B,A,C | C,_A,C,G,C,_G, | %58
 C,F,=E,G,_A,F, | _A,_D,C,_E,D,F, | C,E,B,,=D,=A,,C, | G,,B,,E,G,_A,E, | D,2 C,D,E,D, | %63
 [B,,D,G,]2 z2 [A,,E,^F,]2 | [B,,D,G,]2 z2 [C,G,A,]2 | B,2 z2 E,A, | [D,G,B,]2 z2 [E,B,C]2 | %67
 [D,B,]4 [D,G,B,]2 | [D,B,]4 CB, | [DF]2 [_D=E]2 [C_E]2 | =D2 C2 B,2 | %71
 [C,D,A,]2 [B,,D,G,]2 [C,G,]2 ||[K:G] G,4 A,2 | G,D,B,,D,F,G,- | G,E,^C,E, G,2- | G,2 F,2 =F,2- | %76
 F,2 E,2- [E,D]2 | CA,E,C,E,A, | CA,=F,D,F,A, | G,4 =F,2 | E,2 G,2 =F,2 | E,C,G,,C, E, z | %82
 A,=F,D,F, A,2- | A,2 ^G,2- [G,B,]2 | E,2 A,2 B,C | A,2 CA,^F,D, | =F,2 ^G,B,DB, | =F,4 _B,2 | %88
 =F,2 E,2 G,2 | z2 [=F,A,D]2 [A,D]2 | z2 [=F,_A,D]2 [_B,D]2 | z2 [G,_B,_E]2 [B,E]2 | %92
 z2 [=F,_B,_D]2 [B,D]2 | z2 [G,_B,_D]2 [B,D]2 | z2 [G,-_B,^C]4 | [G,=B,D-]6 | [F,A,D-]6 | %97
 [G,D]4 [E,G,]2 | G,2 F,4 | G,4 D,2 | [D,E,G,]4 [D,F,A,]2 | B,3 CB,A, | B,4 B,2 | [E,G,C]6 | %104
 [=F,_A,C]6 | [G,C]6 | [F,A,C]6 | [D,G,B,]4 [C,A,]2 | [D,G,B,]4 [E,G,C]2 | D3 ED^C | %110
 [G,D]4 [G,CE]2 | [=F,C]6 | [=F,_B,D]6 | [_E,G,_B,_E]6 | [^F,A,C_E]6 | %115
 [D,G,B,D]2 [G,B,D]2 [F,A,C_E]2 | [G,B,D]2 [G,B,D]2 [G,A,C]2 | [G,B,D]2 [G,B,D]2 [F,C_E]2 | %118
 [G,B,D]2 [D,G,B,]2 [F,A,]2 | [D,G,B,]2 z2 z2 | D,6- | !fermata![D,G,B,D]6 |] %122
V:4
 x2 | x6 | x6 | x6 | x6 | D4 E2 | F2 G2 x2 | x6 | x6 | x6 | x6 | x6 | x6 | x6 | x6 | x6 | x6 | x6 | %18
 x6 | x6 | x6 | B2 A2 G2 | x6 | x6 | F6 | B,6 | C6 | _D4 C2 | [B,_D]6- | [B,D]6 | x6 | x6 | x6 | %33
 x6 | F6 | E6- | E6- | E6 | D6 | x6 | x6 | x6 | x6 | x6 | x6 | x6 | x6 | x6 | x6 | x6 | x4 G,D | %51
 CEGEDF | CE_AEAF | EGcG_AF | EGcGe_A | eGdG_dG | cEBG_AE | _ACGC_GC | FC_DB,CF | x6 | x6 | x4 CE | %62
 B,DEDC=A, | x6 | x6 | x4 [CE]2 | x6 | x6 | x4 [=EG]2 | B4 A2 | [FB]2 [EG]4 | x6 || %72
[K:G] [DG-]2 [EG]2 x2 | x6 | x6 | x6 | x6 | x6 | x6 | x6 | x6 | x6 | x6 | x6 | x6 | x6 | x6 | x6 | %88
 x6 | x6 | x6 | x6 | x6 | x6 | x6 | x6 | x6 | x6 | x6 | x6 | x6 | [DG]4 [EG]2 | G2 [FA]2 [EG]2 | %103
 x6 | x6 | x6 | x6 | x6 | x6 | G4 [EG]2 | x6 | x6 | x6 | x6 | x6 | x6 | x6 | x6 | x6 | x6 | x6 | %121
 x6 |] %122
V:5
 x2 | x6 | x6 | x6 | x6 | D,4 E,2 | F,2 G,2 A,2 | x6 | x6 | x6 | x6 | x6 | x6 | x6 | x6 | x6 | x6 | %17
 x6 | x6 | x6 | x6 | x6 | x6 | x6 | x6 | x6 | x6 | _D,4 C,2 | [B,,_D,]6- | [B,,D,]6 | x6 | x6 | %32
 x6 | x6 | x6 | x6 | x6 | E,6 | D,6 | x6 | x6 | x6 | x6 | x6 | x6 | x6 | x6 | x6 | x6 | x6 | x6 | %51
 x6 | x6 | x6 | x6 | x6 | x6 | x6 | x6 | x6 | x6 | x6 | x6 | x6 | x6 | [D,G,]2 z2 C,2 | x6 | x6 | %68
 x4 [=E,G,]2 | B,4 A,2 | [F,B,]2 [E,G,]4 | x6 ||[K:G] D,2 E,2 F,2 | x6 | x6 | x6 | x6 | x6 | x6 | %79
 x6 | x6 | x6 | x6 | x6 | x6 | x6 | x6 | x6 | x6 | x6 | x6 | x6 | x6 | x6 | x6 | x6 | x6 | x6 | %98
 D,6 | x6 | x6 | [D,G,]4 [E,G,]2 | [B,,G,]2 [F,A,]2 [E,G,]2 | x6 | x6 | x6 | x6 | x6 | x6 | %109
 G,4 [E,G,]2 | x6 | x6 | x6 | x6 | x6 | x6 | x6 | x6 | x6 | x6 | x6 | x6 |] %122
V:6
 z2 | z2 G,,2 C,2 | z2 G,,2 E,2 | z2 G,,2 ^F,2 | z2 G,,2 G,2- | G,2 ^F,2 G,2 | D,2 E,2 =F,2 | %7
 G,2 D,2 E,2 | (B,,C, .^C,2) .D,2 | z2 G,,2 =C,2 | z2 G,,2 E,2 | z2 G,,2 ^F,2 | z2 G,,2 G,2- | %13
 G,2 ^F,2 G,2 | D,2 E,2 =F,2 | G,2 D,2 E,2 | B,,C, ^C,2 D,2 | z2 G,,2 =C,2 | z2 B,,2 E,2 | %19
 z2 D,2 E,2 | z2 D,2 _G,2 | F,2 ^F,2 =G,2 | C,D, E,2 C,2 | z2 (F,2 E,2 | D,2 C,2 B,,2 | %25
 E,2 F,2 _G,2 | _A,4) (._A,,2 | =A,,2 B,,2 _A,,2 | _G,,6) | (F,,2 _F,,2 E,,2 | _A,,6 | %31
 _D,2) z2 z2 | z6 | (_F,2 E,2 _D,2 | _G,4) (_G,,2 | =G,,2 _A,,2 _G,,2 | F,,2 _G,,2 _A,,2 | %37
 B,,2 E,2 _C,2 | B,,6) | E,2 z2 z2 | z2 E,2 z2 | z2 B,,2 E,2 | D,4 D,,2 | G,,6- | G,,2 E,,2 C,,2 | %45
 G,,6- | G,,2 _G,,2 E,,2 | (B,,2 A,,2 _A,,2 | G,,2 =E,,2 ^F,,2 | G,,2 A,,2 B,,2 | =B,,6) | C,6- | %52
 C,2 _A,,2 F,,2 | C,6- | C,2 B,,2 _A,,2 | E,,6 | _A,,6 | =E,,6 | F,,6- | F,,2 _A,,2 _D,,2 | =D,,6 | %61
 E,,4 C,,2 | D,,6 | z2 G,G,, C,2 | z2 G,G,, E,2 | z2 G,G,, ^F,2 | z2 G,G,, _G,2- | G,2 F,2 =E,2 | %68
 F,B,, D,2 =G,,2 | F,,6- | F,,2 E,,2 C,2 | ^F,,2 G,,2 E,,2 ||[K:G] D,,6 | G,,6 | E,6 | D,6 | B,,6 | %77
 A,,6 | =F,,6 | E,,4 A,,2 | G,,6 | C,2 z2 z2 | =F,6 | E,6 | A,6 | ^F,6 | ^G,6 | A,6 | A,,6 | %89
 z2 D,2 D2 | z2 _B,,2 _B,2 | z2 G,,2 G,2 | z2 =F,,2 =F,2 | z2 E,,2 E,2 | z2 _E,,4 | D,,6 | C,6 | %97
 B,,4 E,2 | D,6 | G,2 D,2 C,2 | B,,2 D,2 A,,2 | G,,2 F,,2 E,,2 | ^D,,4 E,,2 | C,6 | =F,,6 | =A,,6 | %106
 D,6 | G,2 D,2 E,2 | G,2 D,2 C,2 | B,,2 B,2 ^A,,2 | B,,2 B,2 _B,,2 | A,,6 | _B,,6 | _E,,6 | C,,6 | %115
 G,,4 C,2 | G,,4 _E,2 | G,,4 A,2 | G,,4 _E2 | G,,2 z2 z2 | D,6 | !fermata!G,,6 |] %122

